actions/24/mail-reply-all.svg

<?xml version="1.0" encoding="UTF-8" standalone="no"?>
<svg
   xmlns:dc="http://purl.org/dc/elements/1.1/"
   xmlns:cc="http://creativecommons.org/ns#"
   xmlns:rdf="http://www.w3.org/1999/02/22-rdf-syntax-ns#"
   xmlns:svg="http://www.w3.org/2000/svg"
   xmlns="http://www.w3.org/2000/svg"
   xmlns:xlink="http://www.w3.org/1999/xlink"
   id="svg3071"
   height="24"
   width="24"
   version="1.1">
  <defs
     id="defs3073">
    <linearGradient
       id="linearGradient2867-449-88-871-390-598-476-591-434-148-57-177">
      <stop
         offset="0"
         style="stop-color:#90dbec;stop-opacity:1"
         id="stop3750" />
      <stop
         offset="0.26238"
         style="stop-color:#55c1ec;stop-opacity:1"
         id="stop3752" />
      <stop
         offset="0.704952"
         style="stop-color:#3689e6;stop-opacity:1"
         id="stop3754" />
      <stop
         offset="1"
         style="stop-color:#2b63a0;stop-opacity:1"
         id="stop3756" />
    </linearGradient>
    <linearGradient
       id="linearGradient4087">
      <stop
         offset="0"
         style="stop-color:#ffffff;stop-opacity:1"
         id="stop4089" />
      <stop
         offset="0.51153916"
         style="stop-color:#ffffff;stop-opacity:0.23529412"
         id="stop4091" />
      <stop
         offset="0.58522105"
         style="stop-color:#ffffff;stop-opacity:0.15686275"
         id="stop4093" />
      <stop
         offset="1"
         style="stop-color:#ffffff;stop-opacity:0.39215687"
         id="stop4095" />
    </linearGradient>
    <linearGradient
       id="linearGradient8662">
      <stop
         offset="0"
         style="stop-color:#000000;stop-opacity:1"
         id="stop8664" />
      <stop
         offset="1"
         style="stop-color:#000000;stop-opacity:0"
         id="stop8666" />
    </linearGradient>
    <radialGradient
       gradientTransform="matrix(0.52995454,0,0,-0.35307735,0.487385,29.835677)"
       gradientUnits="userSpaceOnUse"
       xlink:href="#linearGradient8662"
       id="radialGradient3140"
       fy="36.421127"
       fx="24.837126"
       r="15.644737"
       cy="36.421127"
       cx="24.837126" />
    <linearGradient
       gradientTransform="matrix(-0.54198763,0,0,0.50490985,28.710717,0.20314303)"
       gradientUnits="userSpaceOnUse"
       xlink:href="#linearGradient2867-449-88-871-390-598-476-591-434-148-57-177"
       id="linearGradient3142"
       y2="42.03978"
       x2="23.731871"
       y1="4.4175272"
       x1="23.731871" />
    <linearGradient
       gradientTransform="matrix(0,-0.59171698,-0.63516951,0,27.744461,27.519327)"
       gradientUnits="userSpaceOnUse"
       xlink:href="#linearGradient4087"
       id="linearGradient3146"
       y2="15.991243"
       x2="20.576487"
       y1="15.991243"
       x1="38.940514" />
    <linearGradient
       gradientTransform="matrix(0,-0.59171698,-0.63516951,0,21.744461,27.519327)"
       gradientUnits="userSpaceOnUse"
       xlink:href="#linearGradient4087"
       id="linearGradient3059"
       y2="15.991243"
       x2="20.576487"
       y1="15.991243"
       x1="38.940514" />
    <linearGradient
       gradientTransform="matrix(-0.54198763,0,0,0.50490985,22.710717,0.2031439)"
       gradientUnits="userSpaceOnUse"
       xlink:href="#linearGradient4330"
       id="linearGradient3062"
       y2="46.675934"
       x2="23.731871"
       y1="4.4175272"
       x1="23.731871" />
    <linearGradient
       id="linearGradient4330">
      <stop
         offset="0"
         style="stop-color:#f0c1ff;stop-opacity:1"
         id="stop4332" />
      <stop
         offset="0.26238"
         style="stop-color:#c5a3f2;stop-opacity:1"
         id="stop4334" />
      <stop
         offset="0.704952"
         style="stop-color:#7a36b1;stop-opacity:1"
         id="stop4336" />
      <stop
         offset="1"
         style="stop-color:#4c2d81;stop-opacity:1"
         id="stop4338" />
    </linearGradient>
  </defs>
  <metadata
     id="metadata3076">
    <rdf:RDF>
      <cc:Work
         rdf:about="">
        <dc:format>image/svg+xml</dc:format>
        <dc:type
           rdf:resource="http://purl.org/dc/dcmitype/StillImage" />
        <dc:title />
      </cc:Work>
    </rdf:RDF>
  </metadata>
  <path
     d="m 21.940932,16.976195 a 8.2909995,5.5238047 0 1 0 -16.581999,0 8.2909995,5.5238047 0 0 0 16.581999,0 z"
     id="path3501"
     style="display:inline;overflow:visible;visibility:visible;opacity:0.14117647;fill:url(#radialGradient3140);fill-opacity:1;fill-rule:evenodd;stroke:none;stroke-width:1;marker:none" />
  <path
     d="M 14.413599,19.738099 C 20.04103,14.833336 18.04103,6.8333357 9.54103,6.6190637 l 0,-4.143524 -8.9999996,6.904756 8.9999996,6.9047553 0,-4.110195 c 4.947306,-0.192038 7.718477,4.318814 4.181653,7.563243 z"
     id="path3503-1-5"
     style="display:block;overflow:visible;visibility:visible;fill:url(#linearGradient3062);fill-opacity:1;fill-rule:nonzero;stroke:none;stroke-width:0.96392483;stroke-linecap:butt;stroke-linejoin:round;stroke-miterlimit:7;stroke-dasharray:none;stroke-dashoffset:0;stroke-opacity:1;marker:none" />
  <path
     d="M 15.735547,17.332859 C 18.163223,14.489671 16.639984,7.0660757 8.58359,7.6169257 L 8.49847,4.4662767 2.1576671,9.3802957 8.49847,14.25096 l 0,-2.902512 c 7.70931,-0.744942 7.962298,4.835058 7.237078,5.984411 z"
     id="path3505-3-3"
     style="display:block;overflow:visible;visibility:visible;opacity:0.52999998;fill:none;stroke:url(#linearGradient3059);stroke-width:0.96392483;stroke-linecap:butt;stroke-linejoin:miter;stroke-miterlimit:7;stroke-dasharray:none;stroke-dashoffset:0;stroke-opacity:1;marker:none" />
  <path
     d="M 14.413599,19.738099 C 20.04103,14.833336 18.04103,6.8333356 9.54103,6.6190636 l 0,-4.143524 -8.9999996,6.904756 8.9999996,6.9047554 0,-4.110195 c 4.947306,-0.192038 7.718477,4.318814 4.181653,7.563243 z"
     id="path3503-1-0"
     style="color:#000000;clip-rule:nonzero;display:inline;overflow:visible;visibility:visible;opacity:0.5;isolation:auto;mix-blend-mode:normal;color-interpolation:sRGB;color-interpolation-filters:linearRGB;solid-color:#000000;solid-opacity:1;fill:none;fill-opacity:1;fill-rule:nonzero;stroke:#6326b9;stroke-width:1;stroke-linecap:butt;stroke-linejoin:round;stroke-miterlimit:4;stroke-dasharray:none;stroke-dashoffset:0;stroke-opacity:1;marker:none;color-rendering:auto;image-rendering:auto;shape-rendering:auto;text-rendering:auto;enable-background:accumulate" />
  <path
     style="display:block;overflow:visible;visibility:visible;fill:url(#linearGradient3142);fill-opacity:1;fill-rule:nonzero;stroke:none;stroke-width:0.96392483;stroke-linecap:butt;stroke-linejoin:round;stroke-miterlimit:7;stroke-dasharray:none;stroke-dashoffset:0;stroke-opacity:1;marker:none"
     id="path3503"
     d="M 20.413599,19.738099 C 26.04103,14.833336 24.04103,6.8333363 15.54103,6.6190637 l 0,-4.1435236 -8.9999996,6.9047555 8.9999996,6.9047554 0,-4.110195 c 4.947306,-0.192038 7.718477,4.318814 4.181653,7.563243 z" />
  <path
     style="display:block;overflow:visible;visibility:visible;opacity:0.52999998;fill:none;stroke:url(#linearGradient3146);stroke-width:0.96392483;stroke-linecap:butt;stroke-linejoin:miter;stroke-miterlimit:7;stroke-dasharray:none;stroke-dashoffset:0;stroke-opacity:1;marker:none"
     id="path3505"
     d="M 21.735547,17.332859 C 24.163223,14.489671 22.639984,7.0660764 14.58359,7.6169259 L 14.49847,4.4662766 8.1576671,9.3802956 14.49847,14.25096 l 0,-2.902512 c 7.70931,-0.744942 7.962298,4.835058 7.237078,5.984411 z" />
  <path
     style="display:inline;overflow:visible;visibility:visible;fill:#000000;fill-opacity:0;fill-rule:nonzero;stroke:#00537d;stroke-width:0.99999994;stroke-linecap:round;stroke-linejoin:round;stroke-miterlimit:4;stroke-dasharray:none;stroke-dashoffset:0;stroke-opacity:1;marker:none;color:#000000;clip-rule:nonzero;opacity:0.5;isolation:auto;mix-blend-mode:normal;color-interpolation:sRGB;color-interpolation-filters:linearRGB;solid-color:#000000;solid-opacity:1;filter-blend-mode:normal;filter-gaussianBlur-deviation:0;color-rendering:auto;image-rendering:auto;shape-rendering:auto;text-rendering:auto;enable-background:accumulate"
     id="path3503-9"
     d="M 20.413599,19.738099 C 26.04103,14.833336 24.04103,6.8333362 15.54103,6.6190636 l 0,-4.1435236 -8.9999996,6.9047555 8.9999996,6.9047555 0,-4.110195 c 4.947306,-0.192038 7.718477,4.318814 4.181653,7.563243 z" />
</svg>

<svg xmlns="http://www.w3.org/2000/svg" xmlns:xlink="http://www.w3.org/1999/xlink" viewBox="0 0 24 24"><defs><linearGradient id="b"><stop offset="0" stop-color="#90dbec"/><stop offset=".262" stop-color="#55c1ec"/><stop offset=".705" stop-color="#3689e6"/><stop offset="1" stop-color="#2b63a0"/></linearGradient><linearGradient id="c"><stop offset="0" stop-color="#fff"/><stop offset=".512" stop-color="#fff" stop-opacity=".235"/><stop offset=".585" stop-color="#fff" stop-opacity=".157"/><stop offset="1" stop-color="#fff" stop-opacity=".392"/></linearGradient><linearGradient id="a"><stop offset="0"/><stop offset="1" stop-opacity="0"/></linearGradient><radialGradient gradientTransform="matrix(.52995 0 0 -.35308 .487 29.836)" gradientUnits="userSpaceOnUse" xlink:href="#a" id="e" fy="36.421" fx="24.837" r="15.645" cy="36.421" cx="24.837"/><linearGradient gradientTransform="matrix(-.542 0 0 .505 28.71 .203)" gradientUnits="userSpaceOnUse" xlink:href="#b" id="h" y2="42.04" x2="23.732" y1="4.418" x1="23.732"/><linearGradient gradientTransform="matrix(0 -.59172 -.63517 0 27.744 27.52)" gradientUnits="userSpaceOnUse" xlink:href="#c" id="i" y2="15.991" x2="20.576" y1="15.991" x1="38.941"/><linearGradient gradientTransform="matrix(0 -.59172 -.63517 0 21.744 27.52)" gradientUnits="userSpaceOnUse" xlink:href="#c" id="g" y2="15.991" x2="20.576" y1="15.991" x1="38.941"/><linearGradient gradientTransform="matrix(-.542 0 0 .505 22.71 .203)" gradientUnits="userSpaceOnUse" xlink:href="#d" id="f" y2="46.676" x2="23.732" y1="4.418" x1="23.732"/><linearGradient id="d"><stop offset="0" stop-color="#f0c1ff"/><stop offset=".262" stop-color="#c5a3f2"/><stop offset=".705" stop-color="#7a36b1"/><stop offset="1" stop-color="#4c2d81"/></linearGradient></defs><path d="M21.94 16.976a8.29 5.524 0 1 0-16.58 0 8.29 5.524 0 0 0 16.58 0z" overflow="visible" opacity=".141" fill="url(#e)" fill-rule="evenodd"/><path d="M14.414 19.738C20.04 14.833 18.04 6.833 9.54 6.618v-4.14l-9 6.903 9 6.907v-4.11c4.948-.192 7.72 4.32 4.183 7.563z" display="block" overflow="visible" fill="url(#f)"/><path d="M15.736 17.333c2.427-2.843.904-10.267-7.152-9.716l-.086-3.15-6.34 4.913 6.34 4.87v-2.9c7.71-.744 7.963 4.836 7.238 5.985z" display="block" overflow="visible" opacity=".53" fill="none" stroke="url(#g)" stroke-width=".964" stroke-miterlimit="7"/><path d="M14.414 19.738C20.04 14.833 18.04 6.833 9.54 6.618v-4.14l-9 6.903 9 6.907v-4.11c4.948-.192 7.72 4.32 4.183 7.563z" style="isolation:auto;mix-blend-mode:normal" color="#000" overflow="visible" opacity=".5" fill="none" stroke="#6326b9" stroke-linejoin="round"/><path d="M20.414 19.738c5.627-4.905 3.627-12.905-4.873-13.12v-4.14l-9 6.903 9 6.907v-4.11c4.95-.192 7.72 4.32 4.185 7.563z" display="block" overflow="visible" fill="url(#h)"/><path d="M21.736 17.333c2.427-2.843.904-10.267-7.152-9.716l-.086-3.15-6.34 4.913 6.34 4.87v-2.9c7.71-.744 7.963 4.836 7.238 5.985z" display="block" overflow="visible" opacity=".53" fill="none" stroke="url(#i)" stroke-width=".964" stroke-miterlimit="7"/><path style="isolation:auto;mix-blend-mode:normal;filter-blend-mode:normal;filter-gaussianBlur-deviation:0" d="M20.414 19.738c5.627-4.905 3.627-12.905-4.873-13.12v-4.14l-9 6.903 9 6.907v-4.11c4.95-.192 7.72 4.32 4.185 7.563z" overflow="visible" stroke="#00537d" stroke-linecap="round" stroke-linejoin="round" color="#000" opacity=".5" fill="none"/></svg>
